X: 34
T:Mrs Ross' Reel
B:William Marshall A Collection Of Strathspey Reels (1781)
C:William Marshall
L:1/8
M:C|
O:Scotland
R:Reel
Z:Clark Bernst + Richard Robinson
%%Page:4 - 1
F:http://richardrobinson.tunebook.org.uk/tune/3877
%%TBL:{"version":1,"type":"tune","id":"3877"}
K:A
%%staves {1 2}
V:1
AECA, AEcA | dBec B/B/B !trill!B2 | AECA, AEcA | dBac A/A/A A2 :: 
(A/c/e a)e fdec | dBbc B/B/B B2 |1 \
(A/c/e a)e fdec | dBac A/A/A A2 :|2 \
AECE AcBd | ceac A/A/A A2 |]
V:2 middle=d clef=bass
L:1/4
AaeA | BAeE | Acea | eEAA :: \
aaaa | b>aee |1 aaaa | eeAA :|2 Aacd | eEAA |]

